!!!OTL: KEIN BECHER VOLLER WONNEN
!!!ARE: Europa, Mitteleuropa, Deutschland; England
!!!SCT: B0729
!!!YEM: Copyright 1995, estate of Helmut Schaffrath.
**kern
*ICvox
*Ivox
*M2/4
*k[b-e-a-]
*E-:
{8e-
=1
8.g
16a-
8a-
8b-
=2
4b-
8g}
{8b-
=3
8.a-
16g
8a-
8f
=4
4g
8r}
{8e-
=5
8.g
16a-
8a-
8b-
=6
4b-
8g}
{8b-
=7
8.a-
16g
8a-
8f
=8
4e-
8r}
{8b-
=9
8.ee-
16dd
8.cc
16b-
=10
4b-
8g}
{8b-
=11
8.a-
16g
8a-
8f
=12
4.g}
{8b-
=13
8.ee-
16dd
8.cc
16b-
=14
4b-
8g}
{8b-
=15
8b-
4a-
8f
=16
2e-}
=17
{2b-
=18
4a-
4f
=19
4e-
4f
=20
4.g}
{8b-
=21
8.ee-
16dd
8.cc
16b-
=22
4b-
8g}
{8b-
=23
8b-
8cc
8a-
8f
=24
4.e-}
==
!!!AGN: Heimat - Lied
!!!ONB: ESAC (Essen Associative Code) Database: BOEHME
!!!AMT: simple duple
!!!AIN: vox
!!!EED: Helmut Schaffrath
!!!EEV: 1.0
*-
